public/logos/CV.svg

<?xml version="1.0" encoding="UTF-8"?>
<svg xmlns="http://www.w3.org/2000/svg" xmlns:xlink="http://www.w3.org/1999/xlink" width="168.46pt" height="59pt" viewBox="0 0 168.46 59" version="1.1">
<defs>
<clipPath id="clip1">
  <path d="M 69 18 L 168.460938 18 L 168.460938 41 L 69 41 Z M 69 18 "/>
</clipPath>
</defs>
<g id="surface1">
<path style=" stroke:none;fill-rule:nonzero;fill:rgb(83.625793%,11.727905%,14.587402%);fill-opacity:1;" d="M 33.765625 12.785156 C 38.253906 10.277344 38.34375 10.679688 32.578125 7.515625 L 29.269531 5.703125 L 25.089844 8.101562 L 20.90625 10.503906 L 25.089844 12.871094 C 27.386719 14.175781 29.390625 15.1875 29.535156 15.121094 C 29.679688 15.054688 31.585938 14.003906 33.765625 12.785156 Z M 36.519531 26.496094 L 40.207031 24.367188 L 40.207031 14.824219 L 32.066406 19.433594 L 32.066406 24.242188 C 32.066406 26.886719 32.238281 28.953125 32.449219 28.839844 C 32.660156 28.722656 34.488281 27.667969 36.519531 26.496094 Z M 26.980469 24.25 L 26.980469 19.511719 L 25.328125 18.6875 C 24.417969 18.230469 22.472656 17.15625 21.003906 16.292969 L 18.335938 14.726562 L 18.335938 24.320312 L 22.277344 26.628906 C 24.445312 27.902344 26.390625 28.953125 26.597656 28.964844 C 26.808594 28.976562 26.980469 26.855469 26.980469 24.25 Z M 46.617188 36.082031 C 48.671875 34.949219 50.476562 33.820312 50.628906 33.578125 C 50.933594 33.085938 43.785156 28.976562 42.6875 29.011719 C 42.300781 29.023438 40.296875 30.03125 38.230469 31.246094 L 34.480469 33.457031 L 38.488281 35.789062 C 40.691406 37.078125 42.582031 38.132812 42.6875 38.136719 C 42.792969 38.140625 44.5625 37.21875 46.617188 36.082031 Z M 19.859375 35.964844 C 21.957031 34.769531 23.605469 33.570312 23.519531 33.296875 C 23.433594 33.027344 21.671875 31.890625 19.605469 30.769531 L 15.851562 28.734375 L 12.640625 30.472656 C 6.949219 33.550781 7.027344 33.167969 11.546875 35.800781 C 13.742188 37.082031 15.652344 38.128906 15.789062 38.132812 C 15.929688 38.132812 17.761719 37.15625 19.859375 35.964844 Z M 49.894531 49.542969 L 53.941406 47.210938 L 53.941406 37.613281 L 51.269531 39.183594 C 49.800781 40.042969 47.855469 41.121094 46.945312 41.578125 L 45.292969 42.402344 L 45.292969 47.140625 C 45.292969 49.746094 45.417969 51.878906 45.570312 51.878906 C 45.722656 51.878906 47.667969 50.828125 49.894531 49.542969 Z M 40.207031 47.148438 L 40.207031 42.414062 L 36.453125 40.28125 C 34.386719 39.105469 32.554688 38.144531 32.382812 38.144531 C 32.210938 38.144531 32.070312 40.261719 32.070312 42.847656 L 32.070312 47.554688 L 36.011719 49.707031 C 38.179688 50.886719 40.007812 51.859375 40.078125 51.867188 C 40.148438 51.875 40.207031 49.75 40.207031 47.148438 Z M 22.933594 49.542969 L 26.980469 47.210938 L 26.980469 37.613281 L 24.308594 39.183594 C 22.84375 40.042969 20.898438 41.121094 19.988281 41.578125 L 18.335938 42.402344 L 18.335938 47.140625 C 18.335938 49.746094 18.359375 52.023438 18.4375 51.894531 C 18.542969 51.71875 20.710938 50.828125 22.933594 49.542969 Z M 13.242188 47.171875 L 13.238281 42.46875 L 9.445312 40.304688 C 7.355469 39.117188 5.414062 38.144531 5.125 38.144531 C 4.804688 38.144531 4.601562 39.90625 4.601562 42.695312 L 4.601562 47.238281 L 8.796875 49.550781 C 11.105469 50.820312 13.050781 51.863281 13.121094 51.867188 C 13.191406 51.875 13.246094 49.761719 13.242188 47.171875 Z M 7.515625 54.5625 L 0 50.21875 L 0.140625 41.027344 L 0.277344 31.835938 L 6.636719 28.1875 L 12.992188 24.535156 L 13.246094 16.765625 L 13.503906 8.996094 L 21.4375 4.496094 L 29.371094 0 L 37.308594 4.449219 L 45.25 8.898438 L 45.273438 16.617188 L 45.292969 24.339844 L 52.160156 28.21875 L 59.027344 32.09375 L 59.027344 49.773438 L 57.628906 50.742188 C 55.648438 52.113281 43.328125 59 42.859375 59 C 42.644531 59 39.636719 57.398438 36.171875 55.4375 C 32.710938 53.480469 29.632812 51.878906 29.339844 51.878906 C 29.042969 51.878906 25.988281 53.480469 22.550781 55.4375 C 19.117188 57.398438 16.019531 58.976562 15.667969 58.953125 C 15.316406 58.921875 11.648438 56.949219 7.515625 54.5625 "/>
<g clip-path="url(#clip1)" clip-rule="nonzero">
<path style=" stroke:none;fill-rule:nonzero;fill:rgb(6.266785%,5.734253%,5.047607%);fill-opacity:1;" d="M 155.40625 35.492188 L 159.917969 29.160156 L 155.59375 23.195312 L 159.636719 23.195312 L 161.851562 26.578125 L 164.183594 23.195312 L 168.070312 23.195312 L 163.828125 29.019531 L 168.460938 35.492188 L 164.394531 35.492188 L 161.851562 31.683594 L 159.28125 35.492188 Z M 150.480469 35.492188 L 150.480469 33.652344 C 150.023438 34.304688 149.425781 34.824219 148.683594 35.203125 C 147.941406 35.582031 147.15625 35.769531 146.335938 35.769531 C 145.492188 35.769531 144.738281 35.589844 144.070312 35.222656 C 143.402344 34.863281 142.921875 34.351562 142.621094 33.699219 C 142.324219 33.039062 142.175781 32.132812 142.175781 30.976562 L 142.175781 23.195312 L 145.484375 23.195312 L 145.484375 28.84375 C 145.484375 30.574219 145.546875 31.632812 145.667969 32.023438 C 145.789062 32.414062 146.011719 32.722656 146.335938 32.949219 C 146.65625 33.175781 147.0625 33.292969 147.558594 33.292969 C 148.125 33.292969 148.632812 33.140625 149.078125 32.835938 C 149.527344 32.53125 149.832031 32.152344 149.996094 31.699219 C 150.164062 31.246094 150.246094 30.144531 150.246094 28.382812 L 150.246094 23.195312 L 153.554688 23.195312 L 153.554688 35.492188 Z M 135.554688 35.492188 L 135.554688 18.519531 L 138.863281 18.519531 L 138.863281 35.492188 Z M 123.429688 29.34375 C 123.429688 30.5625 123.726562 31.496094 124.3125 32.144531 C 124.902344 32.792969 125.628906 33.117188 126.492188 33.117188 C 127.355469 33.117188 128.082031 32.792969 128.667969 32.144531 C 129.253906 31.496094 129.546875 30.554688 129.546875 29.320312 C 129.546875 28.117188 129.253906 27.191406 128.667969 26.542969 C 128.082031 25.894531 127.355469 25.570312 126.492188 25.570312 C 125.628906 25.570312 124.902344 25.894531 124.3125 26.542969 C 123.726562 27.191406 123.429688 28.125 123.429688 29.34375 Z M 120.035156 29.167969 C 120.035156 28.089844 120.308594 27.042969 120.851562 26.03125 C 121.394531 25.019531 122.160156 24.25 123.152344 23.71875 C 124.144531 23.183594 125.257812 22.917969 126.480469 22.917969 C 128.375 22.917969 129.925781 23.523438 131.136719 24.730469 C 132.34375 25.9375 132.949219 27.464844 132.949219 29.308594 C 132.949219 31.167969 132.339844 32.710938 131.117188 33.933594 C 129.894531 35.15625 128.359375 35.769531 126.503906 35.769531 C 125.359375 35.769531 124.265625 35.515625 123.226562 35.003906 C 122.183594 34.496094 121.394531 33.75 120.851562 32.765625 C 120.308594 31.78125 120.035156 30.582031 120.035156 29.167969 Z M 108.703125 29.089844 C 108.703125 30.394531 108.960938 31.347656 109.476562 31.953125 C 109.988281 32.558594 110.621094 32.863281 111.378906 32.863281 C 112.1875 32.863281 112.871094 32.550781 113.425781 31.929688 C 113.984375 31.308594 114.265625 30.390625 114.265625 29.167969 C 114.265625 27.898438 113.996094 26.949219 113.464844 26.332031 C 112.929688 25.714844 112.253906 25.40625 111.4375 25.40625 C 110.644531 25.40625 109.988281 25.710938 109.476562 26.316406 C 108.960938 26.921875 108.703125 27.847656 108.703125 29.089844 Z M 105.746094 36.300781 L 109.527344 36.753906 C 109.589844 37.183594 109.734375 37.484375 109.964844 37.644531 C 110.277344 37.875 110.773438 37.992188 111.449219 37.992188 C 112.3125 37.992188 112.960938 37.863281 113.394531 37.609375 C 113.683594 37.441406 113.902344 37.167969 114.050781 36.789062 C 114.152344 36.515625 114.203125 36.019531 114.203125 35.292969 L 114.203125 33.5 C 113.214844 34.828125 111.96875 35.492188 110.460938 35.492188 C 108.777344 35.492188 107.445312 34.792969 106.464844 33.394531 C 105.695312 32.292969 105.3125 30.917969 105.3125 29.273438 C 105.3125 27.214844 105.8125 25.640625 106.824219 24.550781 C 107.832031 23.460938 109.089844 22.917969 110.589844 22.917969 C 112.136719 22.917969 113.410156 23.585938 114.417969 24.921875 L 114.417969 23.195312 L 117.515625 23.195312 L 117.515625 34.230469 C 117.515625 35.679688 117.394531 36.765625 117.148438 37.484375 C 116.90625 38.203125 116.566406 38.765625 116.125 39.171875 C 115.6875 39.582031 115.101562 39.902344 114.363281 40.132812 C 113.628906 40.363281 112.699219 40.480469 111.578125 40.480469 C 109.457031 40.480469 107.953125 40.125 107.066406 39.410156 C 106.179688 38.695312 105.734375 37.792969 105.734375 36.695312 C 105.734375 36.585938 105.738281 36.457031 105.746094 36.300781 Z M 99.84375 35.492188 L 96.53125 35.492188 L 96.53125 23.195312 L 99.609375 23.195312 L 99.609375 24.945312 C 100.132812 24.117188 100.605469 23.574219 101.027344 23.3125 C 101.445312 23.050781 101.925781 22.917969 102.460938 22.917969 C 103.214844 22.917969 103.9375 23.121094 104.636719 23.53125 L 103.613281 26.367188 C 103.054688 26.015625 102.539062 25.835938 102.058594 25.835938 C 101.59375 25.835938 101.203125 25.960938 100.878906 26.210938 C 100.558594 26.464844 100.304688 26.914062 100.121094 27.574219 C 99.933594 28.226562 99.84375 29.601562 99.84375 31.695312 Z M 90.148438 29.585938 C 89.722656 29.726562 89.050781 29.890625 88.132812 30.085938 C 87.214844 30.277344 86.613281 30.46875 86.332031 30.652344 C 85.898438 30.953125 85.683594 31.335938 85.683594 31.796875 C 85.683594 32.253906 85.855469 32.648438 86.199219 32.980469 C 86.546875 33.308594 86.984375 33.476562 87.519531 33.476562 C 88.117188 33.476562 88.6875 33.285156 89.226562 32.898438 C 89.628906 32.605469 89.890625 32.246094 90.019531 31.820312 C 90.101562 31.542969 90.148438 31.015625 90.148438 30.234375 Z M 85.71875 26.949219 L 82.714844 26.414062 C 83.050781 25.226562 83.632812 24.347656 84.457031 23.773438 C 85.28125 23.203125 86.507812 22.917969 88.132812 22.917969 C 89.609375 22.917969 90.710938 23.089844 91.429688 23.433594 C 92.15625 23.777344 92.664062 24.210938 92.957031 24.742188 C 93.253906 25.269531 93.398438 26.242188 93.398438 27.652344 L 93.363281 31.449219 C 93.363281 32.53125 93.414062 33.328125 93.523438 33.839844 C 93.628906 34.355469 93.828125 34.90625 94.117188 35.492188 L 90.84375 35.492188 C 90.757812 35.277344 90.652344 34.957031 90.523438 34.53125 C 90.46875 34.339844 90.429688 34.210938 90.40625 34.148438 C 89.839844 34.691406 89.234375 35.09375 88.59375 35.363281 C 87.949219 35.632812 87.261719 35.769531 86.53125 35.769531 C 85.242188 35.769531 84.226562 35.425781 83.484375 34.738281 C 82.742188 34.050781 82.371094 33.183594 82.371094 32.132812 C 82.371094 31.441406 82.539062 30.820312 82.878906 30.277344 C 83.214844 29.730469 83.6875 29.316406 84.296875 29.027344 C 84.90625 28.734375 85.785156 28.484375 86.929688 28.265625 C 88.476562 27.980469 89.550781 27.714844 90.148438 27.46875 L 90.148438 27.144531 C 90.148438 26.519531 89.988281 26.074219 89.675781 25.804688 C 89.363281 25.539062 88.769531 25.40625 87.898438 25.40625 C 87.308594 25.40625 86.847656 25.519531 86.519531 25.75 C 86.1875 25.976562 85.921875 26.375 85.71875 26.949219 Z M 80.722656 26.832031 L 77.457031 27.410156 C 77.347656 26.769531 77.097656 26.285156 76.710938 25.964844 C 76.320312 25.640625 75.816406 25.476562 75.195312 25.476562 C 74.371094 25.476562 73.714844 25.757812 73.222656 26.316406 C 72.730469 26.875 72.484375 27.8125 72.484375 29.125 C 72.484375 30.582031 72.734375 31.613281 73.234375 32.214844 C 73.734375 32.816406 74.402344 33.117188 75.242188 33.117188 C 75.871094 33.117188 76.386719 32.941406 76.785156 32.59375 C 77.1875 32.238281 77.46875 31.636719 77.636719 30.777344 L 80.886719 31.324219 C 80.546875 32.789062 79.902344 33.898438 78.945312 34.648438 C 77.984375 35.394531 76.699219 35.769531 75.089844 35.769531 C 73.261719 35.769531 71.800781 35.203125 70.714844 34.066406 C 69.625 32.933594 69.082031 31.363281 69.082031 29.355469 C 69.082031 27.324219 69.628906 25.746094 70.71875 24.613281 C 71.8125 23.484375 73.289062 22.917969 75.148438 22.917969 C 76.671875 22.917969 77.886719 23.238281 78.785156 23.886719 C 79.683594 24.53125 80.328125 25.511719 80.722656 26.832031 "/>
</g>
</g>
</svg>

<svg xmlns="http://www.w3.org/2000/svg" width="224.613" height="59pt" viewBox="0 0 168.46 59"><defs><clipPath id="a"><path d="M69 18h99.46v23H69Zm0 0"/></clipPath></defs><path d="M33.766 12.785c4.488-2.508 4.578-2.105-1.188-5.27L29.27 5.704l-4.18 2.399-4.184 2.402 4.184 2.367c2.297 1.305 4.3 2.316 4.445 2.25s2.05-1.117 4.23-2.336m2.754 13.711 3.687-2.129v-9.543l-8.14 4.61v4.808c0 2.645.171 4.711.382 4.598.211-.117 2.04-1.172 4.07-2.344m-9.54-2.246v-4.738l-1.652-.825c-.91-.457-2.855-1.53-4.324-2.394l-2.668-1.566v9.593l3.941 2.309c2.168 1.273 4.114 2.324 4.32 2.336.212.012.383-2.11.383-4.715m19.637 11.832c2.055-1.133 3.86-2.262 4.012-2.504.305-.492-6.844-4.601-7.941-4.566-.387.011-2.391 1.02-4.458 2.234l-3.75 2.211 4.008 2.332c2.203 1.29 4.094 2.344 4.2 2.348s1.874-.918 3.93-2.055m-26.758-.117c2.098-1.195 3.746-2.395 3.66-2.668-.085-.27-1.847-1.406-3.914-2.527l-3.753-2.036-3.211 1.739c-5.692 3.078-5.614 2.695-1.094 5.328 2.195 1.281 4.105 2.328 4.242 2.332.14 0 1.973-.977 4.07-2.168m30.036 13.578 4.046-2.332v-9.598l-2.671 1.57c-1.47.86-3.415 1.938-4.325 2.395l-1.652.824v4.739c0 2.605.125 4.738.277 4.738s2.098-1.05 4.325-2.336m-9.688-2.395v-4.734l-3.754-2.133c-2.066-1.176-3.898-2.136-4.07-2.136s-.313 2.117-.313 4.703v4.707l3.942 2.152c2.168 1.18 3.996 2.152 4.066 2.16s.129-2.117.129-4.719m-17.273 2.395 4.046-2.332v-9.598l-2.671 1.57c-1.465.86-3.41 1.938-4.32 2.395l-1.653.824v4.739c0 2.605.023 4.882.102 4.754.105-.176 2.273-1.067 4.496-2.352m-9.692-2.371-.004-4.703-3.793-2.164c-2.09-1.188-4.03-2.16-4.32-2.16-.32 0-.523 1.761-.523 4.55v4.543l4.195 2.313c2.308 1.27 4.254 2.312 4.324 2.316.07.008.125-2.105.121-4.695m-5.726 7.39L0 50.22l.14-9.192.137-9.191 6.36-3.648 6.355-3.653.254-7.77.258-7.769 7.934-4.5L29.37 0l7.938 4.45 7.941 4.448.023 7.72.02 7.722 6.867 3.879 6.867 3.875v17.68l-1.398.968C55.649 52.113 43.329 59 42.859 59c-.214 0-3.222-1.602-6.687-3.562-3.461-1.958-6.54-3.56-6.832-3.56-.297 0-3.352 1.602-6.79 3.56-3.433 1.96-6.53 3.539-6.882 3.515-.352-.031-4.02-2.004-8.152-4.39" style="stroke:none;fill-rule:nonzero;fill:#d51e25;fill-opacity:1"/><g clip-path="url(#a)"><path d="m155.406 35.492 4.512-6.332-4.324-5.965h4.043l2.215 3.383 2.332-3.383h3.886l-4.242 5.825 4.633 6.472h-4.066l-2.543-3.808-2.57 3.808Zm-4.926 0v-1.84a4.85 4.85 0 0 1-1.796 1.551 5.1 5.1 0 0 1-2.348.567q-1.265.002-2.266-.547a3.24 3.24 0 0 1-1.449-1.524q-.445-.989-.445-2.722v-7.782h3.308v5.649q.001 2.594.184 3.18.182.585.668.925.479.342 1.223.344a2.63 2.63 0 0 0 1.52-.457q.672-.457.917-1.137c.168-.453.25-1.554.25-3.316v-5.188h3.309v12.297Zm-14.925 0V18.52h3.308v16.972Zm-12.125-6.148c0 1.218.297 2.152.882 2.8q.885.973 2.18.973t2.176-.972q.879-.973.879-2.825 0-1.805-.879-2.777-.88-.973-2.176-.973-1.295 0-2.18.973c-.585.648-.882 1.582-.882 2.8m-3.395-.176q.001-1.618.817-3.137a5.5 5.5 0 0 1 2.3-2.312c.993-.535 2.106-.801 3.328-.801q2.841 0 4.657 1.812 1.811 1.812 1.812 4.579 0 2.79-1.832 4.625t-4.613 1.836a7.3 7.3 0 0 1-3.277-.766c-1.043-.508-1.832-1.254-2.375-2.238q-.816-1.477-.817-3.598m-11.332-.078q0 1.956.774 2.863.766.91 1.902.91 1.213 0 2.047-.933.839-.93.84-2.762c0-1.27-.27-2.219-.801-2.836a2.57 2.57 0 0 0-2.028-.926c-.792 0-1.449.305-1.96.91q-.774.91-.774 2.774m-2.957 7.21 3.781.454c.063.43.207.73.438.89q.469.347 1.484.348 1.296-.001 1.946-.383.433-.252.656-.82.152-.408.152-1.496V33.5q-1.481 1.992-3.742 1.992-2.526 0-3.996-2.097-1.154-1.654-1.153-4.122c0-2.058.5-3.632 1.512-4.722 1.008-1.09 2.266-1.633 3.766-1.633 1.547 0 2.82.668 3.828 2.004v-1.727h3.098V34.23q.001 2.176-.368 3.254-.362 1.08-1.023 1.688-.654.615-1.762.96-1.102.347-2.785.348-3.181.001-4.512-1.07c-.886-.715-1.332-1.617-1.332-2.715 0-.11.004-.238.012-.394m-5.902-.808H96.53V23.195h3.078v1.75q.785-1.24 1.418-1.633a2.65 2.65 0 0 1 1.434-.394q1.13-.001 2.176.613l-1.024 2.836c-.558-.351-1.074-.531-1.554-.531q-.696 0-1.18.375c-.32.254-.574.703-.758 1.363q-.279.98-.277 4.121Zm-9.696-5.906q-.638.209-2.015.5c-.918.191-1.52.383-1.801.566q-.65.453-.648 1.145 0 .685.515 1.183c.348.329.785.497 1.32.497q.898 0 1.708-.579.601-.44.793-1.078c.082-.277.128-.804.128-1.586Zm-4.43-2.637-3.003-.535q.505-1.78 1.742-2.64 1.237-.856 3.676-.856c1.476 0 2.578.172 3.297.516q1.088.513 1.527 1.308c.297.528.441 1.5.441 2.91l-.035 3.797q-.002 1.624.16 2.39.16.774.594 1.653h-3.273a13 13 0 0 1-.32-.96 6 6 0 0 0-.118-.384 6 6 0 0 1-1.812 1.215 5.3 5.3 0 0 1-2.063.407q-1.933 0-3.047-1.032-1.113-1.03-1.113-2.605-.001-1.04.508-1.856c.336-.547.808-.96 1.418-1.25.61-.293 1.488-.543 2.633-.761q2.32-.428 3.218-.797v-.324q-.002-.936-.472-1.34-.47-.399-1.778-.399-.886 0-1.378.344-.497.339-.801 1.2m-4.995-.117-3.266.578c-.11-.64-.36-1.125-.746-1.445q-.585-.487-1.516-.488-1.235 0-1.972.84-.74.838-.739 2.808 0 2.186.75 3.09.749.902 2.008.902.945-.001 1.543-.523c.403-.356.684-.957.852-1.817l3.25.547q-.508 2.198-1.942 3.324-1.44 1.121-3.855 1.122c-1.828 0-3.29-.567-4.375-1.704q-1.634-1.699-1.633-4.71c0-2.032.547-3.61 1.637-4.743q1.64-1.694 4.43-1.695c1.523 0 2.738.32 3.636.969q1.347.965 1.938 2.945" style="stroke:none;fill-rule:nonzero;fill:#100f0d;fill-opacity:1"/></g></svg>
